X: 40560
T: Tommy Peoples'
R: mazurka
M: 3/4
K: Dmajor
|:FG "D" AF A2|dc "G" BG B2|ef "A" ge c2|Bc "D" BA A2|
FG "D" AF A2|dc "G" BG B2|ef "A" ge cA|Bc "D" d2 d2:|
|:fg "D" af d2|cd "G" cB B2|ef "A" ge c2|Bc "D" BA A2|
fg "D" af d2|cd "G" cB B2|ef "A" ge cA|Bc "D" d2 d2:|

